X: 23080
T: Laughing Minstrel
R: hornpipe
M: 4/4
K: Edorian
(3A,B,C|:DCDE =FEFA|^A=A^Ad cdeg|
fdge afed|cedB A2 AG|FG (3AGF GA BA|
^GB ed cbag|(3fga fdBgec|1 d2dc d2 (3A,B,C:|2 d2dc dAde||
|:=fefd A2d=c|^A=A^AG D2 G=A|
=fefd A2 ^fg|ag fag2 ag|(3fga fd Bg ec|1 d2dc dAde:|2 d2dc d4||

